svg/cactus.svg

<svg xmlns="http://www.w3.org/2000/svg" viewBox="0 0 24 24"><path d="M14 16v5h-4v-3H9a3 3 0 0 1-3-3v-3a1 1 0 0 1 1-1 1 1 0 0 1 1 1v3c0 .56.45 1 1 1h1V6a2 2 0 0 1 2-2 2 2 0 0 1 2 2v8h1a1 1 0 0 0 1-1v-2a1 1 0 0 1 1-1 1 1 0 0 1 1 1v2a3 3 0 0 1-3 3z"/></svg>

<?xml version="1.0" encoding="UTF-8"?><!DOCTYPE svg PUBLIC "-//W3C//DTD SVG 1.1//EN" "http://www.w3.org/Graphics/SVG/1.1/DTD/svg11.dtd"><svg xmlns="http://www.w3.org/2000/svg" xmlns:xlink="http://www.w3.org/1999/xlink" version="1.1" id="mdi-cactus" width="24" height="24" viewBox="0 0 24 24"><path d="M14,16V21H10V18H9A3,3 0 0,1 6,15V12A1,1 0 0,1 7,11A1,1 0 0,1 8,12V15C8,15.56 8.45,16 9,16H10V6A2,2 0 0,1 12,4A2,2 0 0,1 14,6V14H15A1,1 0 0,0 16,13V11A1,1 0 0,1 17,10A1,1 0 0,1 18,11V13A3,3 0 0,1 15,16H14Z" /></svg>
